X:1
T:The Buckskin Bag of Gold
M:2/4
L:1/8
K:Bb
 F| BD F3/2 F/2| E3/2 F/2 G3/2 G/2| FD BF| c3 d/2c/2| BD F3/2 F/2|\
 E3/2 F/2 G3/2 G/2| Fd c3/2 c/2| B3| c| c3/2 d/2 eF| F3/2 B/2 Bd| B3/2 c/2 BG|\
 c3 d/2c/2| BD F3/2 F/2| E3/2 F/2 G G/2G/2| Fd c3/2 d/2| B3| e z G z|\
 F G/2A/2 BD| Cc cc| c3 d/2c/2| BD F3/2 F/2| E3/2 F/2 G G/2G/2| Fd c3/2 d/2|\
 B3 z| e z G z| F G/2A/2 BD| Cc cc| c3 d/2c/2| BD F3/2 F/2| E3/2 F/2 G G/2G/2|\
 Fd c3/2 d/2| B3||
